X: 1
T:MISS ADA CRAWFORD
M:C
L:1/8
Q:80
C:J. Mauchline
S:Strathspey
K:HP
|: {fg}f3/2d/2{gef}e3/2d/2{g}B/2d3/2{e}A3/2d/2|
{g}B/2d3/2{e}A3/2d/2{gef}e2{A}e3/2a/2|
{fg}f3/2d/2{gef}e3/2d/2{g}B/2d3/2{e}A3/2g/2|  !
{a}f/2a3/2{AGAG}A3/2B/2{Gdc}d2{gdc}d3/2a/2:| [|
((3fed){ag}a3/2d/2{gfg}f3/2d/2{ag}a3/2d/2|
{g}((3fed){ag}a3/2d/2{g}c/2e3/2{A}e3/2a/2|  !
fed/2{ag}a3/2d/2{gfg}f3/2d/2{ag}a3/2g/2|
{a}f/2a3/2{ef}e3/2f/2{Gdc}d2{gdc}d3/2a/2| |
((3fed){ag}a3/2d/2{gfg}f3/2d/2{ag}a3/2d/2|  !
{g}((3fed){ag}a3/2d/2{g}c/2e3/2{A}e3/2g/2|
{a}f/2a3/2{ef}e3/2f/2{Gdc}d3/2B/2{g}A3/2g/2|
{a}f/2a3/2{ef}e3/2f/2{Gdc}d2{gdc}d2|]  !
